;FLAVOR:Marlin
;TIME:3612
;Filament used: 10.4244m
;Layer height: 0.2
;MINX:32.71
;MINY:81.638
;MINZ:0.2
;MAXX:202.29
;MAXY:137.718
;MAXZ:10
;TARGET_MACHINE.NAME:ELEGOO NEPTUNE 4 Pro
;Generated with Cura_SteamEngine 5.7.1
M82 ;absolute extrusion mode
;ELEGOO NEPTUNE 4 / 4 PRO
M220 S100 ;Set the feed speed to 100%
M221 S100 ;Set the flow rate to 100%
M104 S140 ;Start heating extruder
M190 S60 ;Wait for the bed to reach print temp
G90
G28 ;home
G1 Z10 F300
G1 X67.5 Y0 F6000
G1 Z0 F300
M109 S210 ;Wait for extruder to reach print temp
G92 E0 ;Reset Extruder
G1 X67.5 Y0 Z0.4 F300 ;Move to start position
G1 X167.5 E30 F400 ;Draw the first line
G1 Z0.6 F120.0 ;Move to side a little
G1 X162.5 F3000
G92 E0 ;Reset Extruder
G92 E0
G92 E0
G1 F2700 E-0.5
;LAYER_COUNT:50
;LAYER:0
M107
M204 S500
G1 F600 Z0.4
;MESH:faceplate-hm904-blank.stl
G0 F7200 X39.063 Y83.68 Z0.4
;TYPE:WALL-INNER
G1 F600 Z0.2
G1 F2700 E0
G1 F3269.9 X39.8 Y83.654 E0.03544
G1 F3253 X40.443 Y83.684 E0.06654
G0 F7200 X38.53 Y84.332
G0 X37.783 Y84.665
G0 X37.146 Y85.18
G0 X36.378 Y86.234
G0 X36.018 Y87.49
G0 X36.011 Y88.203
G0 X36.679 Y90.168
G0 X36.766 Y90.086
G1 F3600 X36.372 Y89.375 E0.10203
G1 X36.172 Y88.766 E0.13001
G1 X36.073 Y88.199 E0.15513
G1 X36.077 Y87.494 E0.18591
G1 X36.205 Y86.855 E0.21436
G1 X36.433 Y86.257 E0.2423
G1 X36.76 Y85.718 E0.26982
G1 X37.182 Y85.223 E0.29821
G1 X37.814 Y84.714 E0.33364
G1 X38.548 Y84.388 E0.3687
G1 X39.16 Y84.236 E0.39623
G1 X39.8 Y84.193 E0.42423
G1 X40.454 Y84.256 E0.45291
G1 X41.078 Y84.434 E0.48124
G1 X41.649 Y84.715 E0.50902
G1 X42.173 Y85.096 E0.5373
G1 X42.733 Y85.674 E0.57243
G1 X43.09 Y86.324 E0.6048
G1 X43.312 Y86.927 E0.63286
G1 X43.428 Y87.61 E0.6631
G1 X43.418 Y88.268 E0.69183
G1 X43.292 Y88.905 E0.72017
G1 X43.071 Y89.482 E0.74714
G1 X42.647 Y90.189 E0.78313
G1 X41.95 Y90.864 E0.82549
G1 X41.223 Y91.261 E0.86165
G1 X40.343 Y91.518 E0.90167
G1 X39.682 Y91.571 E0.93062
G1 X38.881 Y91.484 E0.96579
G1 X38.132 Y91.195 E1.00084
G1 X37.441 Y90.781 E1.036
G1 X36.766 Y90.086 E1.07829
G1 F2700 E0.57829
G0 F7200 X36.679 Y90.168
G0 X35.163 Y88.757
G0 X34.851 Y89.669
G0 X34.851 Y130.343
G0 X35.02 Y131.273
G0 X36.331 Y129.796
G0 X36.433 Y129.858
G1 F2700 E1.07829
G1 F3600 X36.764 Y129.308 E1.10632
G1 X37.183 Y128.823 E1.1343
G1 X37.813 Y128.314 E1.16965
G1 X38.546 Y127.988 E1.20467
G1 X39.172 Y127.831 E1.23285
G1 X39.813 Y127.79 E1.26089
G1 X40.458 Y127.857 E1.28919
G1 X41.058 Y128.03 E1.31645
G1 X41.652 Y128.32 E1.34531
G1 X42.141 Y128.674 E1.37166
G1 X42.728 Y129.268 E1.40812
G1 X43.118 Y129.98 E1.44356
G1 X43.31 Y130.533 E1.46911
G1 X43.428 Y131.214 E1.49928
G1 X43.418 Y131.866 E1.52775
G1 X43.295 Y132.503 E1.55607
G1 X43.066 Y133.1 E1.58398
G1 X42.648 Y133.788 E1.61912
G1 X41.953 Y134.463 E1.66142
G1 X41.226 Y134.861 E1.6976
G1 X40.332 Y135.12 E1.73823
G1 X39.687 Y135.171 E1.76648
G1 X38.879 Y135.084 E1.80195
G1 X38.128 Y134.794 E1.83709
G1 X37.44 Y134.38 E1.87215
G1 X36.769 Y133.688 E1.91423
G1 X36.372 Y132.976 E1.94981
G1 X36.172 Y132.366 E1.97784
G1 X36.072 Y131.799 E2.00297
G1 X36.078 Y131.093 E2.03379
G1 X36.205 Y130.455 E2.06219
G1 X36.433 Y129.858 E2.09008
G0 F7200 X36.331 Y129.796
G0 X35.239 Y131.279
G0 X34.712 Y130.323
G1 F3088.2 X34.799 Y130.833 E2.11641
G1 F2739.1 X34.79 Y131.164 E2.13541
G1 F2747.1 X34.796 Y132.037 E2.18535
G1 F2639.7 X34.819 Y132.54 E2.21533
G1 F2921.2 X34.712 Y132.951 E2.23818
G1 F3493.5 X34.712 Y134.004 E2.28555
G1 F3600 X34.778 Y134.406 E2.30333
G1 X34.907 Y134.757 E2.31966
G1 X35.135 Y135.085 E2.33709
G1 X35.621 Y135.48 E2.36443
G1 X35.96 Y135.641 E2.38082
G1 X36.382 Y135.72 E2.39956
G1 F3559.3 X38.562 Y135.714 E2.49581
G1 F3247.4 X38.921 Y135.668 E2.51333
G1 F3150 X37.89 Y135.265 E2.56855
G1 F3436.4 X37.261 Y134.885 E2.60216
G1 F3600 X36.994 Y134.674 E2.61702
G1 X36.342 Y133.997 E2.65805
G1 X35.948 Y133.292 E2.6933
G1 F3387.1 X35.677 Y132.668 E2.72487
G1 F2846.4 X35.551 Y132.476 E2.73755
G1 F2654.5 X35.47 Y131.865 E2.77404
G1 F2739.1 X35.475 Y130.945 E2.82682
G1 F3103.4 X35.677 Y130.418 E2.8554
G1 F3600 X35.738 Y130.208 E2.86495
G1 X35.961 Y129.624 E2.89224
G1 X36.337 Y128.999 E2.92408
G1 X36.814 Y128.446 E2.95596
G1 X37.404 Y127.97 E2.98905
G1 X37.695 Y127.793 E3.00392
G1 X38.378 Y127.489 E3.03656
G1 X39.092 Y127.31 E3.06869
G1 X39.828 Y127.263 E3.10088
G1 X40.563 Y127.339 E3.13314
G1 X41.306 Y127.564 E3.16703
G1 X41.925 Y127.868 E3.19714
G1 X42.504 Y128.293 E3.22849
G1 X43.151 Y128.949 E3.26871
G1 X43.597 Y129.764 E3.30927
G1 X43.818 Y130.401 E3.3387
G1 X43.954 Y131.17 E3.37279
G1 X43.942 Y131.922 E3.40562
G1 X43.803 Y132.644 E3.43772
G1 X43.539 Y133.333 E3.46993
G1 X43.15 Y133.974 E3.50266
G1 X42.943 Y134.234 E3.51717
G1 X42.394 Y134.766 E3.55054
G1 X42.11 Y134.975 E3.56594
G1 F3467.9 X41.454 Y135.333 E3.5998
G1 F3219.8 X40.429 Y135.678 E3.65259
G1 F3192.6 X40.586 Y135.695 E3.66036
G1 F3436.4 X41.346 Y135.719 E3.69514
G1 F3600 X56.618 Y135.719 E4.36182
G1 F3593.2 X71.89 Y135.718 E5.02977
G1 F3579.5 X87.162 Y135.717 E5.70027
G1 F3572.8 X102.434 Y135.716 E6.37203
G1 F3566 X117.706 Y135.715 E7.04506
G1 F3552.6 X132.978 Y135.714 E7.72063
G1 F3546 X148.25 Y135.713 E8.39747
G1 F3539.3 X163.522 Y135.712 E9.07559
G1 F3526.1 X178.794 Y135.711 E9.75624
G1 F3519.6 X194.066 Y135.71 E10.43816
G1 F3258.6 X194.421 Y135.666 E10.45541
G1 F3298.4 X193.402 Y135.269 E10.50751
G1 F3600 X192.76 Y134.886 E10.54015
G1 X192.494 Y134.675 E10.55497
G1 X191.962 Y134.126 E10.58834
G1 X191.756 Y133.848 E10.60345
G1 X191.387 Y133.181 E10.63672
G1 X191.156 Y132.458 E10.66986
G1 X191.046 Y131.839 E10.6973
G1 X191.059 Y131.035 E10.7324
G1 X191.205 Y130.306 E10.76486
G1 X191.468 Y129.61 E10.79734
G1 X191.846 Y128.994 E10.82889
G1 X192.319 Y128.442 E10.86062
G1 X193.05 Y127.859 E10.90144
G1 X193.869 Y127.498 E10.94051
G1 X194.586 Y127.316 E10.9728
G1 X195.315 Y127.263 E11.00471
G1 X196.054 Y127.338 E11.03714
G1 X196.771 Y127.545 E11.06972
G1 X197.421 Y127.864 E11.10132
G1 X198.017 Y128.298 E11.13351
G1 X198.533 Y128.828 E11.1658
G1 X198.742 Y129.111 E11.18116
G1 X199.05 Y129.671 E11.20906
G1 F3405.4 X199.317 Y130.293 E11.2403
G1 F2855 X199.447 Y130.495 E11.25352
G1 F2610.5 X199.53 Y131.156 E11.29362
G1 F2707.7 X199.521 Y131.995 E11.34232
G1 F3118.8 X199.325 Y132.532 E11.37113
G1 F3600 X199.262 Y132.756 E11.38128
G1 X199.033 Y133.343 E11.40879
G1 X198.544 Y134.134 E11.44939
G1 X197.894 Y134.766 E11.48896
G1 X197.61 Y134.976 E11.50438
G1 F3474.3 X196.952 Y135.335 E11.53829
G1 F3236.3 X195.929 Y135.676 E11.59065
G1 F3208.8 X196.086 Y135.693 E11.59838
G1 F3442.6 X196.845 Y135.715 E11.63305
G1 F3600 X198.689 Y135.717 E11.71354
G1 X199.181 Y135.588 E11.73575
G1 X199.527 Y135.386 E11.75324
G1 X199.819 Y135.141 E11.76988
G1 X200.038 Y134.826 E11.78663
G1 X200.179 Y134.527 E11.80106
G1 X200.288 Y134.016 E11.82387
G1 X200.288 Y132.623 E11.88468
G1 F3093.3 X200.202 Y132.085 E11.91236
G1 F2747.1 X200.211 Y131.276 E11.95864
G1 F2665.7 X200.181 Y130.434 E12.00831
G1 F2855 X200.258 Y130.135 E12.02531
G1 F3405.4 X200.288 Y129.682 E12.04626
G1 F3600 X200.288 Y89.023 E13.82118
G1 F3093.3 X200.202 Y88.485 E13.84886
G1 F2747.1 X200.211 Y87.676 E13.89515
G1 F2665.7 X200.181 Y86.834 E13.94482
G1 F2921.2 X200.288 Y86.419 E13.96787
G1 F3500 X200.288 Y85.361 E14.01538
G1 F3600 X200.218 Y84.958 E14.03323
G1 X200.089 Y84.601 E14.0498
G1 X199.871 Y84.289 E14.06642
G1 X199.643 Y84.062 E14.08046
G1 X199.325 Y83.839 E14.09742
G1 X198.954 Y83.705 E14.11464
G1 X198.621 Y83.641 E14.12944
G1 X196.692 Y83.64 E14.21365
G1 F3480.7 X196.184 Y83.658 E14.2366
G1 F3230.8 X195.943 Y83.684 E14.24839
G1 F3214.3 X196.784 Y83.951 E14.29153
G1 F3399.3 X197.427 Y84.267 E14.32466
G1 F3532.7 X198.025 Y84.704 E14.3576
G1 F3600 X198.656 Y85.364 E14.39747
G1 X199.05 Y86.071 E14.4328
G1 F3405.4 X199.317 Y86.693 E14.46403
G1 F2855 X199.447 Y86.895 E14.47726
G1 F2610.5 X199.53 Y87.556 E14.51736
G1 F2707.7 X199.521 Y88.395 E14.56606
G1 F3118.8 X199.325 Y88.932 E14.59487
G1 F3600 X199.262 Y89.156 E14.60502
G1 X199.035 Y89.739 E14.63233
G1 X198.649 Y90.374 E14.66477
G1 X198.443 Y90.634 E14.67925
G1 X197.895 Y91.166 E14.7126
G1 X197.61 Y91.376 E14.72805
G1 X196.934 Y91.746 E14.76169
G1 X195.932 Y92.043 E14.80731
G1 X195.166 Y92.098 E14.84084
G1 X194.245 Y91.991 E14.88131
G1 X193.381 Y91.659 E14.92172
G1 X192.615 Y91.197 E14.96077
G1 X191.837 Y90.392 E15.00964
G1 X191.4 Y89.598 E15.04921
G1 X191.179 Y88.963 E15.07856
G1 X191.047 Y88.249 E15.11025
G1 X191.053 Y87.438 E15.14566
G1 X191.198 Y86.713 E15.17793
G1 X191.461 Y86.024 E15.21013
G1 X191.837 Y85.398 E15.24201
G1 X192.315 Y84.845 E15.27391
G1 X192.904 Y84.37 E15.30695
G1 X193.195 Y84.193 E15.32182
G1 X193.77 Y83.936 E15.34931
G1 F3351.1 X194.563 Y83.68 E15.38839
G1 X193.956 Y83.641 E15.41691
G1 F3600 X41.192 Y83.64 E22.08566
G1 F3480.7 X40.684 Y83.658 E22.10861
G1 F3230.8 X40.443 Y83.684 E22.1204
G1 F3214.3 X41.284 Y83.951 E22.16354
G1 F3399.3 X41.927 Y84.267 E22.19667
G1 F3532.7 X42.518 Y84.699 E22.22923
G1 F3600 X43.033 Y85.228 E22.26146
G1 X43.242 Y85.511 E22.27682
G1 X43.61 Y86.18 E22.31015
G1 X43.842 Y86.913 E22.34371
G1 X43.954 Y87.575 E22.37302
G1 X43.942 Y88.327 E22.40586
G1 X43.796 Y89.052 E22.43814
G1 X43.53 Y89.748 E22.47067
G1 X43.058 Y90.521 E22.5102
G1 X42.261 Y91.292 E22.55861
G1 X41.416 Y91.752 E22.60061
G1 X40.403 Y92.045 E22.64665
G1 X39.671 Y92.098 E22.67868
G1 X38.926 Y92.017 E22.7114
G1 X38.596 Y91.937 E22.72622
G1 X37.898 Y91.668 E22.75888
G1 X37.26 Y91.285 E22.79136
G1 X36.994 Y91.075 E22.80615
G1 X36.462 Y90.526 E22.83953
G1 X36.256 Y90.248 E22.85463
G1 X35.948 Y89.692 E22.88238
G1 F3387.1 X35.677 Y89.068 E22.91394
G1 F2846.4 X35.551 Y88.876 E22.92662
G1 F2654.5 X35.47 Y88.265 E22.96311
G1 F2739.1 X35.475 Y87.345 E23.0159
G1 F3103.4 X35.677 Y86.818 E23.04448
G1 F3600 X35.738 Y86.608 E23.05402
G1 X35.962 Y86.02 E23.08149
G1 X36.331 Y85.416 E23.11239
G1 X36.815 Y84.845 E23.14507
G1 X37.404 Y84.37 E23.1781
G1 X37.695 Y84.193 E23.19297
G1 X38.27 Y83.936 E23.22046
G1 F3351.1 X39.063 Y83.68 E23.25954
G1 X38.456 Y83.641 E23.28806
G1 F3600 X36.428 Y83.64 E23.37659
G1 X36.026 Y83.71 E23.39441
G1 X35.673 Y83.839 E23.41081
G1 X35.357 Y84.061 E23.42767
G1 X35.13 Y84.286 E23.44162
G1 X34.955 Y84.536 E23.45495
G1 X34.819 Y84.827 E23.46897
G1 X34.713 Y85.331 E23.49145
G1 X34.712 Y86.723 E23.55222
G1 F3088.2 X34.799 Y87.233 E23.57854
G1 F2739.1 X34.79 Y87.564 E23.59754
G1 F2747.1 X34.796 Y88.437 E23.64749
G1 F2639.7 X34.819 Y88.94 E23.67746
G1 F2846.4 X34.745 Y89.224 E23.69367
G1 F3387.1 X34.712 Y89.677 E23.71474
G1 F3600 X34.712 Y130.323 E25.4891
G0 F7200 X35.02 Y131.273
G0 X36.718 Y133.721
G0 X37.272 Y134.295
G0 X38.921 Y135.668
G1 F3208.8 X39.697 Y135.706 E25.52715
G1 F3258.6 X40.429 Y135.678 E25.56248
G1 F2700 E25.06248
G0 F7200 X193.296 Y135.569
G0 X191.37 Y132.528
G0 X191.461 Y131.067
G0 X191.581 Y131.091
G1 F2700 E25.56248
G1 F3600 X191.708 Y130.454 E25.59083
G1 X191.928 Y129.876 E25.61783
G1 X192.249 Y129.334 E25.64533
G1 X192.701 Y128.81 E25.67554
G1 X193.317 Y128.312 E25.71012
G1 X194.043 Y127.993 E25.74473
G1 X194.669 Y127.831 E25.77296
G1 X195.313 Y127.79 E25.80113
G1 X195.958 Y127.856 E25.82944
G1 X196.583 Y128.036 E25.85783
G1 X197.204 Y128.355 E25.88831
G1 X197.669 Y128.693 E25.9134
G1 X198.231 Y129.271 E25.94859
G1 X198.59 Y129.924 E25.98112
G1 X198.812 Y130.527 E26.00917
G1 X198.928 Y131.21 E26.03942
G1 X198.918 Y131.869 E26.06819
G1 X198.795 Y132.504 E26.09642
G1 X198.565 Y133.102 E26.12439
G1 X198.139 Y133.795 E26.1599
G1 X197.45 Y134.465 E26.20186
G1 X196.727 Y134.86 E26.23782
G1 X195.832 Y135.12 E26.27851
G1 X195.187 Y135.171 E26.30675
G1 X194.382 Y135.084 E26.3421
G1 X193.632 Y134.796 E26.37717
G1 X192.943 Y134.383 E26.41224
G1 X192.266 Y133.685 E26.45469
G1 X191.872 Y132.974 E26.49017
G1 X191.673 Y132.366 E26.5181
G1 X191.572 Y131.797 E26.54332
G1 X191.581 Y131.091 E26.57415
G0 F7200 X191.461 Y131.067
G0 X191.625 Y132.448
G0 X192.218 Y133.721
G0 X192.772 Y134.295
G0 X194.421 Y135.666
G1 F3230.8 X195.197 Y135.704 E26.61194
G1 F3281.2 X195.929 Y135.676 E26.64702
G1 F2700 E26.14702
G0 F7200 X197.49 Y134.513
G0 X198.199 Y133.83
G0 X198.622 Y133.128
G0 X200.085 Y130.173
G0 X200.149 Y89.004
G0 X199.979 Y88.102
G0 X196.988 Y91.874
G0 X192.543 Y91.315
G0 X191.451 Y88.208
G0 X191.572 Y88.201
G1 F2700 E26.64702
G1 F3600 X191.578 Y87.493 E26.67793
G1 X191.705 Y86.855 E26.70633
G1 X191.933 Y86.258 E26.73423
G1 X192.264 Y85.708 E26.76225
G1 X192.683 Y85.223 E26.79023
G1 X193.314 Y84.714 E26.82562
G1 X194.048 Y84.388 E26.86068
G1 X194.66 Y84.236 E26.88821
G1 X195.3 Y84.193 E26.91621
G1 X195.954 Y84.256 E26.94489
G1 X196.578 Y84.434 E26.97322
G1 X197.15 Y84.715 E27.00104
G1 X197.673 Y85.097 E27.02931
G1 X198.231 Y85.676 E27.06441
G1 X198.59 Y86.324 E27.09675
G1 X198.812 Y86.927 E27.1248
G1 X198.928 Y87.61 E27.15504
G1 X198.918 Y88.269 E27.18382
G1 X198.795 Y88.904 E27.21205
G1 X198.566 Y89.5 E27.23992
G1 X198.148 Y90.188 E27.27507
G1 X197.452 Y90.863 E27.31739
G1 X196.729 Y91.259 E27.35338
G1 X195.84 Y91.523 E27.39386
G1 X195.179 Y91.57 E27.42279
G1 X194.388 Y91.485 E27.45752
G1 X193.647 Y91.2 E27.49217
G1 X192.939 Y90.779 E27.52813
G1 X192.265 Y90.082 E27.57046
G1 X191.879 Y89.381 E27.60539
G1 X191.687 Y88.829 E27.63091
G1 X191.572 Y88.201 E27.65878
G0 F7200 X191.451 Y88.208
G0 X191.644 Y86.843
G0 X192.216 Y85.674
G0 X194.563 Y83.68
G1 F3269.9 X195.3 Y83.654 E27.69422
G1 F3253 X195.943 Y83.684 E27.72532
G1 F2700 E27.22532
G0 F7200 X41.69 Y83.788
G0 X44.093 Y87.559
G0 X42.345 Y91.408
G0 X37.843 Y91.797
G0 X35.163 Y88.757
G0 X34.851 Y89.669
G0 X34.851 Y130.343
G0 X35.02 Y131.273
G0 X37.648 Y127.662
G0 X41.999 Y127.749
G0 X44.066 Y131.007
G0 X43.122 Y133.128
G0 X42.699 Y133.83
G0 X41.99 Y134.513
G0 X41.257 Y134.919
G0 X40.353 Y135.186
G0 X39.683 Y135.232
G0 X38.868 Y135.146
G0 X38.103 Y134.852
G0 X35.827 Y133.36
G0 X35.499 Y132.694
G0 X34.31 Y134.047
G0 X34.187 Y134.047
G1 F2700 E27.72532
G1 F3600 X34.269 Y134.539 E27.74709
G1 X34.437 Y135.001 E27.76855
G1 X34.731 Y135.422 E27.79097
G1 X34.957 Y135.651 E27.80501
G1 X35.353 Y135.935 E27.82629
G1 X35.797 Y136.145 E27.84773
G1 X36.333 Y136.245 E27.87153
G1 X198.474 Y136.241 E34.94962
G1 X198.898 Y136.205 E34.9682
G1 X199.384 Y136.077 E34.99013
G1 X199.83 Y135.817 E35.01267
G1 X200.21 Y135.499 E35.0343
G1 X200.495 Y135.089 E35.0561
G1 X200.674 Y134.708 E35.07448
G1 X200.813 Y134.05 E35.10383
G1 X200.813 Y85.316 E37.23126
G1 X200.728 Y84.823 E37.2531
G1 X200.559 Y84.357 E37.27474
G1 X200.274 Y83.949 E37.29647
G1 X199.981 Y83.658 E37.3145
G1 X199.569 Y83.369 E37.33646
G1 X199.094 Y83.197 E37.35852
G1 X198.672 Y83.116 E37.37728
G1 X36.384 Y83.115 E44.46178
G1 X35.891 Y83.2 E44.48362
G1 X35.428 Y83.369 E44.50514
G1 X35.017 Y83.658 E44.52707
G1 X34.726 Y83.948 E44.54501
G1 X34.5 Y84.272 E44.56225
G1 X34.324 Y84.647 E44.58034
G1 X34.188 Y85.296 E44.60928
G1 X34.187 Y134.047 E46.73745
G0 F7200 X33.662 Y134.09
;TYPE:WALL-OUTER
G1 F3600 X33.759 Y134.673 E46.76325
G1 X33.967 Y135.246 E46.78987
G1 X34.326 Y135.759 E46.8172
G1 X34.615 Y136.051 E46.83513
G1 X35.086 Y136.389 E46.86044
G1 X35.634 Y136.648 E46.8869
G1 X36.285 Y136.77 E46.91581
G1 X198.496 Y136.766 E53.99696
G1 X198.987 Y136.724 E54.01847
G1 X199.586 Y136.567 E54.04551
G1 X200.132 Y136.248 E54.07311
G1 X200.6 Y135.857 E54.09973
G1 X200.952 Y135.352 E54.1266
G1 X201.168 Y134.889 E54.14891
G1 X201.294 Y134.425 E54.1699
G1 X201.338 Y134.083 E54.18495
G1 X201.338 Y85.271 E56.31578
G1 X201.237 Y84.688 E56.34161
G1 X201.029 Y84.114 E56.36827
G1 X200.678 Y83.61 E56.39508
G1 X200.319 Y83.254 E56.41715
G1 X199.814 Y82.899 E56.4441
G1 X199.234 Y82.69 E56.47101
G1 X198.722 Y82.591 E56.49377
G1 X36.339 Y82.59 E63.58243
G1 X35.756 Y82.691 E63.60826
G1 X35.183 Y82.899 E63.63487
G1 X34.678 Y83.254 E63.66182
G1 X34.322 Y83.609 E63.68376
G1 X34.044 Y84.008 E63.70499
G1 X33.828 Y84.466 E63.7271
G1 X33.663 Y85.262 E63.76258
G1 X33.662 Y134.09 E65.89412
G0 F7200 X33.694 Y134.287
G0 X34.333 Y134.18
G0 X36.368 Y129.734
G0 X36.919 Y130.068
G1 F3600 X37.205 Y129.6 E65.91806
G1 X37.533 Y129.22 E65.93998
G1 X38.091 Y128.765 E65.97141
G1 X38.739 Y128.481 E66.00229
G1 X39.231 Y128.357 E66.02444
